src/assets/icons/customerService.svg

<svg xmlns="http://www.w3.org/2000/svg" xmlns:xlink="http://www.w3.org/1999/xlink" version="1.1" width="17.928466796875" height="18.800048828125" viewBox="0 0 17.928466796875 18.800048828125"><g><path d="M9.22912,0.00381464L8.96529,0C4.02352,0,0.0176711,4.00585,0.0176711,8.94762L0.017088,9.54611C0.00579832,9.64664,0,9.74883,0,9.85238L0,12.5667C0,14.0657,1.21523,15.281,2.71429,15.281C4.21334,15.281,5.42857,14.0657,5.42857,12.5667L5.42857,9.85238C5.42857,9.13251,5.1426,8.44212,4.63358,7.93309C4.12455,7.42406,3.43416,7.1381,2.71429,7.1381C2.39905,7.1381,2.09636,7.19184,1.81491,7.29125C2.5484,4.11202,5.34763,1.72292,8.72307,1.61345L8.96529,1.60952C12.4492,1.60952,15.366,4.03739,16.1169,7.29256C15.8296,7.19127,15.5247,7.1381,15.2143,7.1381C13.7152,7.1381,12.5,8.35332,12.5,9.85238L12.5,12.5667C12.5,13.7676,13.28,14.7864,14.3618,15.1439C13.9841,16.3511,12.8621,17.1905,11.5755,17.1905L9.87005,17.1905L9.77024,17.0967L9.76378,16.9894C9.71371,16.5894,9.37215,16.2857,8.96529,16.2857C8.52083,16.2857,8.16053,16.646,8.16053,17.0905L8.16053,17.9C8.16053,18.3971,8.56347,18.8,9.06053,18.8L11.5755,18.8C13.7436,18.8,15.6075,17.2634,16.0211,15.1352L16.017,15.1603C17.1242,14.818,17.9286,13.7863,17.9286,12.5667L17.9286,9.85238C17.9286,9.75879,17.9237,9.66571,17.9142,9.57345L17.9129,8.94762C17.9129,4.09409,14.0489,0.143364,9.22912,0.00381464ZM2.71429,8.63818C2.08557,8.63818,1.56845,9.116,1.50627,9.72832L1.5,9.85247L1.5,12.5668C1.5,13.2374,2.04365,13.781,2.71429,13.781C3.343,13.781,3.86012,13.3032,3.9223,12.6909L3.92857,12.5668L3.92857,9.85247C3.92857,9.53042,3.80064,9.22156,3.57292,8.99384C3.34519,8.76612,3.03633,8.63818,2.71429,8.63818ZM15.2143,8.63818C14.5856,8.63818,14.0685,9.116,14.0063,9.72832L14,9.85247L14,12.5668C14,13.2374,14.5437,13.781,15.2143,13.781C15.843,13.781,16.3601,13.3032,16.4223,12.6909L16.4286,12.5668L16.4286,9.85247C16.4286,9.53042,16.3006,9.22156,16.0729,8.99384C15.8452,8.76612,15.5363,8.63818,15.2143,8.63818Z" fill-rule="evenodd" fill-opacity="1"/></g></svg>

<svg xmlns="http://www.w3.org/2000/svg" width="17.928" height="18.8"><path fill-rule="evenodd" d="M9.23.004 8.964 0A8.947 8.947 0 0 0 .018 8.948v.598Q0 9.696 0 9.852v2.715a2.714 2.714 0 0 0 5.429 0V9.852a2.714 2.714 0 0 0-3.614-2.56 7.34 7.34 0 0 1 6.908-5.679l.242-.003a7.34 7.34 0 0 1 7.152 5.683 2.714 2.714 0 0 0-3.617 2.56v2.714c0 1.2.78 2.22 1.862 2.577a2.92 2.92 0 0 1-2.786 2.047H9.87l-.1-.094-.006-.108a.805.805 0 0 0-1.603.101v.81a.9.9 0 0 0 .9.9h2.515a4.53 4.53 0 0 0 4.445-3.665l-.004.025a2.715 2.715 0 0 0 1.912-2.593V9.852q0-.14-.015-.279l-.001-.625A8.95 8.95 0 0 0 9.229.004M2.713 8.638c-.628 0-1.146.478-1.208 1.09l-.006.124v2.715a1.214 1.214 0 0 0 2.422.124l.007-.124V9.852a1.214 1.214 0 0 0-1.215-1.214m12.5 0c-.628 0-1.146.478-1.208 1.09L14 9.852v2.715a1.214 1.214 0 0 0 2.422.124l.007-.124V9.852a1.214 1.214 0 0 0-1.215-1.214"/></svg>
